pix_core/i/completion-manual-enabled.svg

<!DOCTYPE svg PUBLIC "-//W3C//DTD SVG 1.1//EN" "http://www.w3.org/Graphics/SVG/1.1/DTD/svg11.dtd" [
	<!ENTITY ns_flows "http://ns.adobe.com/Flows/1.0/">
]><svg xmlns="http://www.w3.org/2000/svg" width="16" height="16" viewBox="0 0 16 16" preserveAspectRatio="xMinYMid meet" overflow="visible"><path d="M16 6.4v7.6c0 1.1-.9 2-2 2h-12c-1.1 0-2-.9-2-2v-12c0-1.1.9-2 2-2h12c1.1 0 2 .9 2 2v.8l-.3-.3c-.4-.4-.9-.6-1.4-.6-.4 0-.9.1-1.2.4-.3-.2-.7-.3-1.1-.3h-8c-1.1 0-2 .9-2 2v8c0 1.1.9 2 2 2h8c1.1 0 2-.9 2-2v-3.6l2-2zm-.3-2.5l-.7-.7c-.4-.4-1-.4-1.4 0l-6 6-2.2-2.2c-.4-.3-1-.3-1.4 0l-.7.7c-.4.4-.4 1 0 1.4l3.6 3.6c.4.4 1 .4 1.4 0l7.4-7.4c.4-.4.4-1 0-1.4z" fill="#888"/></svg>

<?xml version="1.0" encoding="utf-8"?>
<!-- Generator: Adobe Illustrator 15.1.0, SVG Export Plug-In  -->
<!DOCTYPE svg PUBLIC "-//W3C//DTD SVG 1.1//EN" "http://www.w3.org/Graphics/SVG/1.1/DTD/svg11.dtd" [
	<!ENTITY ns_flows "http://ns.adobe.com/Flows/1.0/">
]>
<svg version="1.1"
	 xmlns="http://www.w3.org/2000/svg" xmlns:xlink="http://www.w3.org/1999/xlink" xmlns:a="http://ns.adobe.com/AdobeSVGViewerExtensions/3.0/"
	 x="0px" y="0px" width="16px" height="16px" viewBox="0 0 16 16" style="overflow:visible;enable-background:new 0 0 16 16;"
	 xml:space="preserve" preserveAspectRatio="xMinYMid meet">
<defs>
</defs>
<path style="fill:#29a1c4;" d="M16,6.4V14c0,1.1-0.9,2-2,2H2c-1.1,0-2-0.9-2-2V2c0-1.1,0.9-2,2-2h12c1.1,0,2,0.9,2,2v0.8l-0.3-0.3
	c-0.4-0.4-0.9-0.6-1.4-0.6c-0.4,0-0.9,0.1-1.2,0.4C12.8,2.1,12.4,2,12,2H4C2.9,2,2,2.9,2,4v8c0,1.1,0.9,2,2,2h8c1.1,0,2-0.9,2-2V8.4
	L16,6.4z M15.7,3.9L15,3.2c-0.4-0.4-1-0.4-1.4,0l-6,6L5.4,7C5,6.7,4.4,6.7,4,7L3.3,7.7c-0.4,0.4-0.4,1,0,1.4l3.6,3.6
	c0.4,0.4,1,0.4,1.4,0l7.4-7.4C16.1,4.9,16.1,4.3,15.7,3.9z"/>
</svg>
